dist/images/ico/ico_btm_bar_sprite01.svg

<svg width="104" height="28" viewBox="0 0 104 28" fill="none" xmlns="http://www.w3.org/2000/svg">
<g opacity="0.2">
<path d="M15.8223 17.7895C16.0592 17.5101 16.0592 17.0588 15.8223 16.7794L13.4655 13.9995L15.8223 11.2197C16.0592 10.9403 16.0592 10.489 15.8223 10.2096C15.5854 9.93015 15.2027 9.93015 14.9658 10.2096L12.1777 13.498C11.9408 13.7775 11.9408 14.2288 12.1777 14.5082L14.9658 17.7967C15.1967 18.0689 15.5854 18.0689 15.8223 17.7895Z" fill="#253981"/>
</g>
<path d="M53.8223 17.7895C54.0592 17.5101 54.0592 17.0588 53.8223 16.7794L51.4655 13.9995L53.8223 11.2197C54.0592 10.9403 54.0592 10.489 53.8223 10.2096C53.5854 9.93015 53.2027 9.93015 52.9658 10.2096L50.1777 13.498C49.9408 13.7775 49.9408 14.2288 50.1777 14.5082L52.9658 17.7967C53.1967 18.0689 53.5854 18.0689 53.8223 17.7895Z" fill="#253981"/>
<path d="M88.1777 10.2105C87.9408 10.4899 87.9408 10.9412 88.1777 11.2206L90.5345 14.0005L88.1777 16.7803C87.9408 17.0597 87.9408 17.511 88.1777 17.7904C88.4146 18.0699 88.7973 18.0699 89.0342 17.7904L91.8223 14.502C92.0592 14.2225 92.0592 13.7712 91.8223 13.4918L89.0342 10.2033C88.8033 9.93105 88.4146 9.93105 88.1777 10.2105Z" fill="white"/>
</svg>

<svg width="104" height="28" fill="none" xmlns="http://www.w3.org/2000/svg"><path d="M15.822 17.79a.807.807 0 000-1.01L13.466 14l2.356-2.78a.807.807 0 000-1.01.542.542 0 00-.856 0l-2.788 3.288a.807.807 0 000 1.01l2.788 3.289c.23.272.62.272.856-.008z" fill="#253981" opacity=".2"/><path d="M53.822 17.79a.807.807 0 000-1.01L51.465 14l2.357-2.78a.807.807 0 000-1.01.542.542 0 00-.856 0l-2.788 3.288a.807.807 0 000 1.01l2.788 3.289c.23.272.62.272.856-.008z" fill="#253981"/><path d="M88.178 10.21a.807.807 0 000 1.01L90.534 14l-2.356 2.78a.807.807 0 000 1.01c.237.28.62.28.856 0l2.788-3.288a.807.807 0 000-1.01l-2.788-3.289a.547.547 0 00-.856.008z" fill="#fff"/></svg>
